; generated by Slic3r 1.2.9 on 2019-01-26 at 23:48:34

; external perimeters extrusion width = 0.80mm
; perimeters extrusion width = 1.36mm
; infill extrusion width = 2.56mm
; solid infill extrusion width = 1.36mm
; top infill extrusion width = 1.36mm

M190 S70 ; set bed temperature
M104 S240 ; set temperature
M107 ;start with the fan off
G28

G92 E0 ;zero the extruded length
G1 F300 E40 ;extrude 3mm of feed stock
G92 E0 ;zero the extruded length again

G92 X0 Y0 Z0
G1 Y50 F900;
G92 X0 Y0 Z0

M109 S240 ; wait for temperature to be reached
G21 ; set units to millimeters
G90 ; use absolute coordinates
M82 ; use absolute distances for extrusion
G92 E0
G1 Z0.600 F4800.000
G1 E-6.00000 F1800.00000
G92 E0
G1 X118.168 Y82.153 F4800.000
G1 E6.50000 F1800.00000
G1 X61.832 Y82.153 E21.84642 F480.000
G1 X61.832 Y83.245 E22.14390
G1 X118.168 Y83.245 E37.49032
G1 X118.168 Y84.337 E37.78779
G1 X61.832 Y84.337 E53.13421
G1 X61.832 Y85.429 E53.43169
G1 X118.168 Y85.429 E68.77811
G1 X118.168 Y86.521 E69.07559
G1 X61.832 Y86.521 E84.42200
G1 X61.832 Y87.613 E84.71948
G1 X118.168 Y87.613 E100.06590
G1 X118.168 Y88.705 E100.36338
G1 X61.832 Y88.705 E115.70980
G1 X61.832 Y89.797 E116.00727
G1 X118.168 Y89.797 E131.35369
G1 X118.168 Y90.890 E131.65117
G1 X61.832 Y90.890 E146.99759
G1 X61.832 Y91.982 E147.29507
G1 X118.168 Y91.982 E162.64149
G1 X118.168 Y93.074 E162.93896
