; generated by Slic3r 1.2.9 on 2019-01-26 at 23:48:34

; external perimeters extrusion width = 0.80mm
; perimeters extrusion width = 1.36mm
; infill extrusion width = 2.56mm
; solid infill extrusion width = 1.36mm
; top infill extrusion width = 1.36mm

M190 S70 ; set bed temperature
M104 S240 ; set temperature
M107 ;start with the fan off
G28

G92 E0 ;zero the extruded length
G1 F300 E40 ;extrude 3mm of feed stock
G92 E0 ;zero the extruded length again

G92 X0 Y0 Z0
G1 Y50 F900;
G92 X0 Y0 Z0

M109 S240 ; wait for temperature to be reached
G21 ; set units to millimeters
G90 ; use absolute coordinates
M82 ; use absolute distances for extrusion
G92 E0
G1 Z0.600 F4800.000
G1 E-6.00000 F1800.00000
G92 E0
G1 X118.168 Y82.153 F4800.000
G1 E6.50000 F1800.00000
G1 X61.832 Y82.153 E21.84642 F480.000
G1 X61.832 Y83.245 E22.14390
G1 X118.168 Y83.245 E37.49032
G1 X118.168 Y84.337 E37.78779
G1 X61.832 Y84.337 E53.13421
G1 X61.832 Y85.429 E53.43169
G1 X118.168 Y85.429 E68.77811
G1 X118.168 Y86.521 E69.07559
G1 X61.832 Y86.521 E84.42200
G1 X61.832 Y87.613 E84.71948
G1 X118.168 Y87.613 E100.06590
G1 X118.168 Y88.705 E100.36338
G1 X61.832 Y88.705 E115.70980
G1 X61.832 Y89.797 E116.00727
G1 X118.168 Y89.797 E131.35369
G1 X118.168 Y90.890 E131.65117
G1 X61.832 Y90.890 E146.99759
G1 X61.832 Y91.982 E147.29507
G1 X118.168 Y91.982 E162.64149
G1 X118.168 Y93.074 E162.93896
G1 X61.832 Y93.074 E178.28538
G1 X61.832 Y94.166 E178.58286
G1 X118.168 Y94.166 E193.92928
G1 X118.168 Y95.258 E194.22676
G1 X61.832 Y95.258 E209.57317
G1 X61.832 Y96.350 E209.87065
G1 X118.168 Y96.350 E225.21707
G1 X118.168 Y97.442 E225.51455
G1 X61.832 Y97.442 E240.86097
G1 X61.832 Y98.534 E241.15844
G1 X118.168 Y98.534 E256.50486
G1 X118.168 Y99.626 E256.80234
G1 X61.832 Y99.626 E272.14876
G1 X61.832 Y100.718 E272.44624
G1 X118.168 Y100.718 E287.79266
G1 X118.168 Y101.810 E288.09013
G1 X61.832 Y101.810 E303.43655
G1 X61.832 Y102.902 E303.73403
G1 X118.168 Y102.902 E319.08045
G1 X118.168 Y103.994 E319.37793
G1 X61.832 Y103.994 E334.72435
G1 X61.832 Y105.086 E335.02182
G1 X118.168 Y105.086 E350.36824
G1 X118.168 Y106.178 E350.66572
G1 X61.832 Y106.178 E366.01214
G1 X61.832 Y107.270 E366.30961
G1 X118.168 Y107.270 E381.65603
G1 X118.168 Y108.362 E381.95351
G1 X61.832 Y108.362 E397.29993
G1 X61.832 Y109.454 E397.59741
G1 X118.168 Y109.454 E412.94383
G1 X118.168 Y110.546 E413.24130
G1 X61.832 Y110.546 E428.58772
G1 X61.832 Y111.638 E428.88520
G1 X118.168 Y111.638 E444.23162
G1 X118.168 Y112.730 E444.52910
G1 X61.832 Y112.730 E459.87552
G1 X61.832 Y113.822 E460.17299
G1 X118.168 Y113.822 E475.51941
G1 X118.168 Y114.914 E475.81689
G1 X61.832 Y114.914 E491.16331
G1 X61.832 Y116.006 E491.46079
G1 X118.168 Y116.006 E506.80720
G1 X118.168 Y117.098 E507.10468
G1 X61.832 Y117.098 E522.45110
G1 X61.832 Y118.190 E522.74858
G1 X118.168 Y118.190 E538.09500
G1 X118.168 Y119.282 E538.39247
G1 X61.832 Y119.282 E553.73889
G1 X61.832 Y120.374 E554.03637
G1 X118.168 Y120.374 E569.38279
G1 X118.168 Y121.466 E569.68027
G1 X61.832 Y121.466 E585.02669
G1 X61.832 Y122.558 E585.32416
G1 X118.168 Y122.558 E600.67058
G1 X118.168 Y123.650 E600.96806
G1 X61.832 Y123.650 E616.31448
G1 X61.832 Y124.742 E616.61196
G1 X118.168 Y124.742 E631.95837
G1 X118.168 Y125.834 E632.25585
G1 X61.832 Y125.834 E647.60227
G1 X61.832 Y126.926 E647.89975
G1 X118.168 Y126.926 E663.24617
G1 X118.168 Y128.019 E663.54364
G1 X61.832 Y128.019 E678.89006
G1 X61.832 Y129.111 E679.18754
G1 X118.168 Y129.111 E694.53396
G1 X118.168 Y130.203 E694.83144
G1 X61.832 Y130.203 E710.17786
G1 X61.832 Y131.295 E710.47533
G1 X118.168 Y131.295 E725.82175
G1 X118.168 Y132.387 E726.11923
G1 X61.832 Y132.387 E741.46565
G1 X61.832 Y133.479 E741.76313
G1 X118.168 Y133.479 E757.10955
G1 X118.168 Y134.571 E757.40702
G1 X61.832 Y134.571 E772.75344
G1 X61.832 Y135.663 E773.05092
G1 X118.168 Y135.663 E788.39734
G1 X118.168 Y136.755 E788.69482
G1 X61.832 Y136.755 E804.04123
G1 X61.832 Y137.847 E804.33871
G1 X118.168 Y137.847 E819.68513
G1 X118.329 Y106.305 F4800.000
G1 X118.329 Y138.329 E828.24251 F1440.000
G1 X61.671 Y138.329 E843.38263 F1440.000
G1 X61.671 Y81.671 E858.52274
G1 X118.329 Y81.671 E873.66286
G1 X118.329 Y106.185 E880.21353
G1 X119.400 Y106.185 F4800.000
G1 X119.400 Y139.400 E889.08923 F720.000
G1 X60.600 Y139.400 E904.80186 F720.000
G1 X60.600 Y80.600 E920.51450
G1 X119.400 Y80.600 E936.22713
G1 X119.400 Y106.065 E943.03199
G1 X118.707 Y106.585 F4800.000
G1 Z0.800 F4800.000
G1 X117.970 Y138.365 F4800.000
G1 X117.970 Y81.635 E949.31489 F1200.000
G1 X116.638 Y81.635 E949.46240
G1 X116.638 Y138.365 E955.74530
G1 X115.306 Y138.365 E955.89281
G1 X115.306 Y81.635 E962.17571
G1 X113.975 Y81.635 E962.32322
G1 X113.975 Y138.365 E968.60612
G1 X112.643 Y138.365 E968.75363
G1 X112.643 Y81.635 E975.03653
G1 X111.311 Y81.635 E975.18404
G1 X111.311 Y138.365 E981.46694
G1 X109.979 Y138.365 E981.61445
G1 X109.979 Y81.635 E987.89735
G1 X108.647 Y81.635 E988.04486
G1 X108.647 Y138.365 E994.32776
G1 X107.315 Y138.365 E994.47527
G1 X107.315 Y81.635 E1000.75817
G1 X105.983 Y81.635 E1000.90568
G1 X105.983 Y138.365 E1007.18858
G1 X104.651 Y138.365 E1007.33609
G1 X104.651 Y81.635 E1013.61899
G1 X103.319 Y81.635 E1013.76650
G1 X103.319 Y138.365 E1020.04940
G1 X101.987 Y138.365 E1020.19691
G1 X101.987 Y81.635 E1026.47981
G1 X100.655 Y81.635 E1026.62732
G1 X100.655 Y138.365 E1032.91022
G1 X99.323 Y138.365 E1033.05773
G1 X99.323 Y81.635 E1039.34063
G1 X97.991 Y81.635 E1039.48814
G1 X97.991 Y138.365 E1045.77104
G1 X96.660 Y138.365 E1045.91855
G1 X96.660 Y81.635 E1052.20145
G1 X95.328 Y81.635 E1052.34896
G1 X95.328 Y138.365 E1058.63187
G1 X93.996 Y138.365 E1058.77937
G1 X93.996 Y81.635 E1065.06228
G1 X92.664 Y81.635 E1065.20978
G1 X92.664 Y138.365 E1071.49269
G1 X91.332 Y138.365 E1071.64019
G1 X91.332 Y81.635 E1077.92310
G1 X90.000 Y81.635 E1078.07060
G1 X90.000 Y138.365 E1084.35351
G1 X88.668 Y138.365 E1084.50101
G1 X88.668 Y81.635 E1090.78392
G1 X87.336 Y81.635 E1090.93142
G1 X87.336 Y138.365 E1097.21433
G1 X86.004 Y138.365 E1097.36184
G1 X86.004 Y81.635 E1103.64474
G1 X84.672 Y81.635 E1103.79225
G1 X84.672 Y138.365 E1110.07515
G1 X83.340 Y138.365 E1110.22266
G1 X83.340 Y81.635 E1116.50556
G1 X82.008 Y81.635 E1116.65307
G1 X82.008 Y138.365 E1122.93597
G1 X80.677 Y138.365 E1123.08348
G1 X80.677 Y81.635 E1129.36638
G1 X79.345 Y81.635 E1129.51389
G1 X79.345 Y138.365 E1135.79679
G1 X78.013 Y138.365 E1135.94430
G1 X78.013 Y81.635 E1142.22720
G1 X76.681 Y81.635 E1142.37471
G1 X76.681 Y138.365 E1148.65761
G1 X75.349 Y138.365 E1148.80512
G1 X75.349 Y81.635 E1155.08802
G1 X74.017 Y81.635 E1155.23553
G1 X74.017 Y138.365 E1161.51843
G1 X72.685 Y138.365 E1161.66594
G1 X72.685 Y81.635 E1167.94884
G1 X71.353 Y81.635 E1168.09635
G1 X71.353 Y138.365 E1174.37925
G1 X70.021 Y138.365 E1174.52676
G1 X70.021 Y81.635 E1180.80966
G1 X68.689 Y81.635 E1180.95717
G1 X68.689 Y138.365 E1187.24007
G1 X67.357 Y138.365 E1187.38758
G1 X67.357 Y81.635 E1193.67048
G1 X66.025 Y81.635 E1193.81799
G1 X66.025 Y138.365 E1200.10089
G1 X64.694 Y138.365 E1200.24840
G1 X64.694 Y81.635 E1206.53130
G1 X63.362 Y81.635 E1206.67881
G1 X63.362 Y138.365 E1212.96171
G1 X62.030 Y138.365 E1213.10922
G1 X62.030 Y81.635 E1219.39212
G1 X82.529 Y138.563 F4800.000
G1 X61.437 Y138.563 E1221.70199 F3600.000
G1 X61.437 Y81.437 E1227.95816
G1 X118.563 Y81.437 E1234.21433
G1 X118.563 Y138.563 E1240.47050
G1 X82.649 Y138.563 E1244.40366 F3600.000
G1 X82.649 Y139.600 F4800.000
G1 X60.400 Y139.600 E1245.80426 F1800.000
G1 X60.400 Y80.400 E1249.53098
G1 X119.600 Y80.400 E1253.25771
G1 X119.600 Y139.600 E1256.98443
G1 X82.769 Y139.600 E1259.30301 F1800.000
G1 X82.249 Y138.907 F4800.000
G1 Z1.000 F4800.000
G1 X76.784 Y132.643 F4800.000
G1 X118.365 Y132.643 E1263.90809 F900.000
G1 X118.365 Y131.311 E1264.05560
G1 X61.635 Y131.311 E1270.33850
G1 X61.635 Y129.979 E1270.48601
G1 X118.365 Y129.979 E1276.76891
G1 X118.365 Y128.647 E1276.91641
G1 X61.635 Y128.647 E1283.19931
G1 X61.635 Y127.315 E1283.34682
G1 X118.365 Y127.315 E1289.62972
G1 X118.365 Y125.983 E1289.77723
G1 X61.635 Y125.983 E1296.06012
G1 X61.635 Y124.651 E1296.20763
G1 X118.365 Y124.651 E1302.49053
G1 X118.365 Y123.319 E1302.63804
G1 X61.635 Y123.319 E1308.92093
G1 X61.635 Y121.987 E1309.06844
G1 X118.365 Y121.987 E1315.35134
G1 X118.365 Y120.655 E1315.49885
G1 X61.635 Y120.655 E1321.78175
G1 X61.635 Y119.323 E1321.92925
G1 X118.365 Y119.323 E1328.21215
G1 X118.365 Y117.992 E1328.35966
G1 X78.012 Y117.992 E1332.82873
G1 X78.012 Y116.660 E1332.97624
G1 X118.365 Y116.660 E1337.44530
G1 X118.365 Y115.328 E1337.59281
G1 X61.635 Y115.328 E1343.87571
G1 X61.635 Y113.996 E1344.02322
G1 X118.365 Y113.996 E1350.30612
G1 X118.365 Y112.664 E1350.45362
G1 X61.635 Y112.664 E1356.73652
G1 X61.635 Y111.332 E1356.88403
G1 X118.365 Y111.332 E1363.16693
G1 X118.365 Y110.000 E1363.31444
G1 X61.635 Y110.000 E1369.59733
G1 X61.635 Y108.668 E1369.74484
G1 X118.365 Y108.668 E1376.02774
G1 X118.365 Y107.336 E1376.17525
G1 X61.635 Y107.336 E1382.45814
G1 X61.635 Y106.004 E1382.60565
G1 X118.365 Y106.004 E1388.88855
G1 X118.365 Y104.672 E1389.03606
G1 X61.635 Y104.672 E1395.31896
G1 X61.635 Y103.340 E1395.46646
G1 X118.365 Y103.340 E1401.74936
G1 X118.365 Y102.009 E1401.89687
G1 X61.635 Y102.009 E1408.17977
G1 X61.635 Y100.677 E1408.32728
G1 X118.365 Y100.677 E1414.61017
G1 X118.365 Y99.345 E1414.75768
G1 X61.635 Y99.345 E1421.04058
G1 X61.635 Y98.013 E1421.18809
G1 X118.365 Y98.013 E1427.47098
G1 X118.365 Y96.681 E1427.61849
G1 X61.635 Y96.681 E1433.90139
G1 X61.635 Y95.349 E1434.04890
G1 X118.365 Y95.349 E1440.33180
G1 X118.365 Y94.017 E1440.47930
G1 X61.635 Y94.017 E1446.76220
G1 X61.635 Y92.685 E1446.90971
G1 X118.365 Y92.685 E1453.19261
G1 X118.365 Y91.353 E1453.34012
G1 X61.635 Y91.353 E1459.62301
G1 X61.635 Y90.021 E1459.77052
G1 X118.365 Y90.021 E1466.05342
G1 X118.365 Y88.689 E1466.20093
G1 X61.635 Y88.689 E1472.48382
G1 X61.635 Y87.357 E1472.63133
G1 X118.365 Y87.357 E1478.91423
G1 X118.365 Y86.025 E1479.06174
G1 X61.635 Y86.025 E1485.34464
G1 X61.635 Y84.694 E1485.49214
G1 X118.365 Y84.694 E1491.77504
G1 X118.365 Y83.362 E1491.92255
G1 X61.635 Y83.362 E1498.20545
G1 X61.635 Y82.030 E1498.35296
G1 X118.365 Y82.030 E1504.63585
G1 E1498.63585 F1800.00000
G92 E0
G1 X77.367 Y117.992 F4800.000
G1 E6.50000 F1800.00000
G1 X61.635 Y117.992 E8.24231 F900.000
G1 X61.635 Y116.660 F4800.000
G1 X73.716 Y116.660 E9.58027 F900.000
G1 X75.276 Y132.643 F4800.000
G1 X61.635 Y132.643 E11.09105 F900.000
G1 X61.635 Y133.975 E11.23856
G1 X118.365 Y133.975 E17.52146
G1 X118.365 Y135.306 E17.66897
G1 X61.635 Y135.306 E23.95187
G1 X61.635 Y136.638 E24.09938
G1 X118.365 Y136.638 E30.38227
G1 X118.365 Y137.970 E30.52978
G1 X61.635 Y137.970 E36.81268
G1 X61.437 Y118.534 F4800.000
G1 X61.437 Y81.437 E40.87537 F3600.000
G1 X118.563 Y81.437 E47.13154
G1 X118.563 Y138.563 E53.38771
G1 X61.437 Y138.563 E59.64388 F3600.000
G1 X61.437 Y118.654 E61.82422
G1 X60.400 Y118.654 F4800.000
G1 X60.400 Y80.400 E64.23236 F1800.000
G1 X119.600 Y80.400 E67.95909
G1 X119.600 Y139.600 E71.68581
G1 X60.400 Y139.600 E75.41254 F1800.000
G1 X60.400 Y118.774 E76.72357
G1 X61.093 Y118.254 F4800.000
G1 Z1.200 F4800.000
G1 X68.975 Y130.855 F4800.000
G1 X69.017 Y126.403 E77.21114 F1800.000
G1 X69.057 Y125.658 E77.29288
G1 X69.101 Y125.542 E77.30643
G1 X69.212 Y125.457 E77.32175
G1 X69.435 Y125.405 E77.34686
G1 X69.989 Y125.380 E77.40757
G1 X79.753 Y125.358 E78.47691
G1 X79.939 Y125.382 E78.49741
G1 X80.041 Y125.503 E78.51476
G1 X80.115 Y125.712 E78.53908
G1 X80.139 Y125.844 E78.55370
G1 X80.173 Y126.644 E78.64147
G1 X80.194 Y131.110 E79.13050
G1 X80.169 Y135.694 E79.63261
G1 X80.145 Y136.079 E79.67477
G1 X80.086 Y136.310 E79.70096
G1 X80.024 Y136.379 E79.71113
G1 X79.924 Y136.416 E79.72274
G1 X79.497 Y136.498 E79.77039
G1 X77.737 Y136.563 E79.96319
G1 X74.403 Y136.588 E80.32843
G1 X71.119 Y136.568 E80.68803
G1 X69.525 Y136.526 E80.86262
G1 X69.280 Y136.480 E80.88998
G1 X69.192 Y136.367 E80.90566
G1 X69.094 Y136.093 E80.93751
G1 X69.056 Y135.862 E80.96310
G1 X69.013 Y135.288 E81.02615
G1 X68.975 Y130.855 E81.51165
G1 X74.246 Y133.056 F4800.000
G1 X74.301 Y133.218 E81.52247 F900.000
G1 X74.669 Y133.767 E81.56407
G1 X75.252 Y134.447 E81.62044
G1 X76.172 Y135.376 E81.70276
G1 X74.578 Y135.396 E81.80312
G1 X71.512 Y135.359 E81.99611
G1 X72.359 Y134.326 E82.08019
G1 X73.089 Y133.302 E82.15933
G1 X73.682 Y132.392 E82.22775
G1 X74.124 Y132.519 E82.25671
G1 X74.127 Y132.703 E82.26833 F900.000
G1 X74.208 Y132.942 E82.28419
G1 X74.133 Y133.185 F4800.000
G1 X70.300 Y133.001 F4800.000
G1 X70.218 Y133.681 E82.35915 F1800.000
G1 X70.172 Y134.364 E82.43409
G1 X70.176 Y134.533 E82.45267
G1 X70.222 Y134.823 E82.48485
G1 X70.331 Y135.137 E82.52124
G1 X70.854 Y135.532 E82.59297
G1 X70.105 Y128.247 F4800.000
G1 X70.109 Y127.864 E82.61710 F900.000
G1 X70.535 Y127.727 E82.64527
G1 X71.234 Y128.673 E82.71936
G1 X73.002 Y130.657 E82.88664 F900.000
G1 X71.979 Y130.776 E82.95150
G1 X71.562 Y130.950 E82.97996
G1 X71.199 Y131.233 E83.00890
G1 X70.886 Y131.842 E83.05202
G1 X70.610 Y132.646 E83.10553
G1 X70.093 Y132.563 E83.13851
G1 X70.073 Y130.890 E83.24381
G1 X70.103 Y128.367 E83.40263
G1 X70.439 Y128.060 F4800.000
G1 X73.667 Y128.456 F4800.000
G1 X72.833 Y127.558 E83.47982 F900.000
G1 X71.796 Y126.557 E83.57054
G1 X74.518 Y126.508 E83.74188
G1 X75.684 Y126.521 E83.81533
G1 X74.694 Y127.689 E83.91172 F900.000
G1 X73.919 Y128.727 E83.99326
G1 X73.749 Y128.544 E84.00896
G1 X73.903 Y127.691 F4800.000
G1 X77.905 Y129.163 F4800.000
G1 X77.986 Y129.185 E84.01812 F900.000
G1 X78.008 Y130.137 E84.12233 F900.000
G1 X76.999 Y129.705 E84.24253
G1 X77.417 Y129.030 E84.32944
G1 X77.789 Y129.132 E84.37169
G1 X79.021 Y129.103 F4800.000
G1 X79.061 Y130.828 E84.48029 F900.000
G1 X79.020 Y133.121 E84.62466
G1 X77.980 Y131.790 E84.73098
G1 X77.446 Y131.208 E84.78070
G1 X77.027 Y130.845 E84.81563
G1 X76.600 Y130.662 E84.84485
G1 X75.843 Y130.586 E84.89273
G1 X75.559 Y130.425 E84.91332
G1 X75.260 Y130.138 E84.93939
G1 X75.710 Y129.695 E84.97921
G1 X76.270 Y128.912 E85.03979
G1 X76.792 Y128.071 E85.10209
G1 X77.085 Y127.405 E85.14792
G1 X76.807 Y126.533 E85.20549
G1 X77.606 Y126.542 E85.25578
G1 X78.898 Y126.604 E85.33721 F900.000
G1 X78.990 Y127.768 E85.41074
G1 X79.018 Y128.983 E85.48724
G1 X78.338 Y129.519 F4800.000
G1 X77.930 Y135.354 F4800.000
G1 X77.004 Y135.366 E85.54551 F900.000
G1 X76.973 Y134.716 E85.58646
G1 X77.450 Y134.613 E85.61714
G1 X77.541 Y134.306 E85.63732
G1 X78.094 Y134.075 E85.67504
G1 X78.283 Y133.688 E85.70216
G1 X79.014 Y133.416 E85.75127
G1 X79.005 Y133.923 E85.78318
G1 X78.930 Y134.964 E85.84888 F900.000
G1 X78.859 Y135.277 E85.86911
G1 X78.268 Y135.350 E85.90661
G1 X78.050 Y135.353 E85.92036
G1 X77.521 Y134.667 F4800.000
G1 X78.544 Y120.191 F4800.000
G1 X76.676 Y120.362 E86.33789 F1200.000
G1 X75.453 Y120.392 E86.61029
G1 X73.695 Y120.392 E87.00161
G1 X72.725 Y120.592 E87.22195
G1 X72.504 Y120.609 E87.27133
G1 X71.574 Y120.560 E87.47874
G1 X70.971 Y120.313 F4800.000
G1 X70.971 Y121.339 E87.59106 F1200.000
G1 X70.971 Y121.339 F4800.000
G1 X70.971 Y120.313 E87.70338 F1200.000
G1 X72.136 Y114.057 F4800.000
G1 X76.240 Y114.027 E88.61685 F1200.000
G1 X76.382 Y113.915 E88.65708
G1 X76.790 Y113.694 E88.76047
G1 X77.313 Y113.539 E88.88185
G1 X78.421 Y113.946 F4800.000
G1 X78.421 Y112.936 E88.99251 F1200.000
G1 X78.421 Y112.936 F4800.000
G1 X78.421 Y113.946 E89.10317 F1200.000
G1 X72.131 Y113.596 F4800.000
G1 X71.448 Y113.439 E89.17990 F1200.000
G1 X70.658 Y113.436 E89.26646
G1 X78.441 Y121.541 F4800.000
G1 X74.530 Y121.585 E89.51266 F900.000
G1 X71.040 Y121.543 E89.73237
G1 X70.188 Y121.484 E89.78617
G1 X70.101 Y120.010 E89.87909
G1 X71.035 Y120.139 E89.93849
G1 X71.370 Y120.042 E89.96044
G1 X71.639 Y119.796 E89.98337
G1 X71.694 Y119.577 E89.99759
G1 X72.460 Y119.649 E90.04604
G1 X72.990 Y119.418 E90.08245
G1 X73.126 Y119.210 E90.09809
G1 X75.443 Y119.210 E90.24391
G1 X76.595 Y119.166 E90.31648
G1 X77.038 Y119.087 E90.34483 F900.000
G1 X77.603 Y118.874 E90.38284
G1 X77.973 Y119.155 E90.41209
G1 X79.101 Y119.006 E90.48371
